X:107
T:Christ The Lord Is Risen Today (Lyra)
%%stretchlast false
M:4/4
L:1/4
K:Eb clef=C1
"^I"[EGBe]3/2 "^i"[EABf]/ "^I"[EBg] "^I¹"[G,Be] | "^ii¹"[A,Acf] "^V"[B,FBd] "^I"[E,GBe]2 | [EGeb] [EGeb] "^IV"[A,Aec'] "^vi"[CEeg]/ "^IV¹"[CEea]/ | "^i"[B,Feb] "^V"[B,Fdb] "^I"[EGeg]2 | [EBeg] "^V¹"[DBf] "^IV¹"[CAea] "^I²"[B,Beg] | "^ii¹"[A,cf] "^IV"[A,ce]/ "^ii¹"[A,cf]/ "^III"[G,=Bdg]2 | "^I¹"[G,Beb]3/2 "^IV"[A,cea]/ "^iii¹"[B,Bdg] "^vi"[CGce] | "^ii¹"[A,Acf] "^V"[B,FBd] "^I"[E,GBe]2 |]
